icons/eye-closed-16.svg

<svg width="16" height="16" viewBox="0 0 16 16" xmlns="http://www.w3.org/2000/svg">
  <g clip-path="url(#clip0)">
    <path fill-rule="evenodd" clip-rule="evenodd" d="M0.142598 2.31017C0.385538 1.97468 0.854448 1.89966 1.18994 2.1426L15.6899 12.6426C16.0254 12.8855 16.1005 13.3544 15.8575 13.6899C15.6146 14.0254 15.1457 14.1005 14.8102 13.8575L12.5615 12.2292C11.3457 13.1889 9.7922 14.0001 8.00006 14.0001C6.0187 14.0001 4.32923 13.0084 3.06667 11.9225C1.79722 10.8308 0.8805 9.57698 0.42968 8.89876C0.0668461 8.35291 0.0657162 7.64896 0.429259 7.10198C0.783329 6.56925 1.4245 5.68192 2.2979 4.7969L0.310172 3.35751C-0.0253172 3.11457 -0.100343 2.64566 0.142598 2.31017ZM3.52875 5.6882C2.66555 6.5303 2.02476 7.4113 1.6785 7.93227C1.66294 7.95569 1.65707 7.97881 1.65708 7.99992C1.65709 8.02107 1.66303 8.04455 1.67888 8.0684C2.09147 8.68911 2.92065 9.81854 4.04474 10.7853C5.17571 11.7579 6.52743 12.5001 8.00006 12.5001C9.19465 12.5001 10.3095 12.0116 11.2907 11.3089L9.06202 9.69505C8.75428 9.88827 8.39019 10 8 10C6.89543 10 6 9.10458 6 8.00001C6 7.83446 6.02011 7.6736 6.05803 7.51976L3.52875 5.6882ZM8.00006 3.50005C7.48367 3.50005 6.98343 3.59079 6.50129 3.7511C6.10823 3.88179 5.68365 3.6691 5.55296 3.27604C5.42227 2.88299 5.63496 2.45841 6.02802 2.32772C6.64531 2.12247 7.30538 2.00005 8.00006 2.00005C9.98141 2.00005 11.6709 2.99172 12.9334 4.07756C14.2029 5.16932 15.1196 6.42313 15.5704 7.10135C15.9337 7.64779 15.9336 8.3524 15.5704 8.89879C15.4598 9.0652 15.3223 9.26447 15.1596 9.48627C14.9146 9.82026 14.4452 9.8924 14.1113 9.6474C13.7773 9.4024 13.7051 8.93304 13.9501 8.59905C14.0979 8.39766 14.2221 8.2175 14.3212 8.06843C14.35 8.02506 14.35 7.97502 14.3212 7.93171C13.9086 7.311 13.0795 6.18157 11.9554 5.21482C10.8244 4.24216 9.47268 3.50005 8.00006 3.50005Z"/>
  </g>
  <defs>
    <clipPath id="clip0">
      <rect width="16" height="16"/>
    </clipPath>
  </defs>
</svg>

<svg xmlns="http://www.w3.org/2000/svg" width="16" height="16" viewBox="0 0 16 16"><path fill-rule="evenodd" d="M.143 2.31a.75.75 0 011.047-.167l14.5 10.5a.75.75 0 11-.88 1.214l-2.248-1.628C11.346 13.19 9.792 14 8 14c-1.981 0-3.67-.992-4.933-2.078C1.797 10.832.88 9.577.43 8.9a1.618 1.618 0 010-1.797c.353-.533.995-1.42 1.868-2.305L.31 3.357A.75.75 0 01.143 2.31zm3.386 3.378a14.21 14.21 0 00-1.85 2.244.12.12 0 00-.022.068c0 .021.006.045.022.068.412.621 1.242 1.75 2.366 2.717C5.175 11.758 6.527 12.5 8 12.5c1.195 0 2.31-.488 3.29-1.191L9.063 9.695A2 2 0 016.058 7.52l-2.53-1.832zM8 3.5c-.516 0-1.017.09-1.499.251a.75.75 0 11-.473-1.423A6.23 6.23 0 018 2c1.981 0 3.67.992 4.933 2.078 1.27 1.091 2.187 2.345 2.637 3.023a1.619 1.619 0 010 1.798c-.11.166-.248.365-.41.587a.75.75 0 11-1.21-.887c.148-.201.272-.382.371-.53a.119.119 0 000-.137c-.412-.621-1.242-1.75-2.366-2.717C10.825 4.242 9.473 3.5 8 3.5z"/></svg>
